svg/fluentui-system-icons/ic_fluent_box_edit_24_filled.svg

<svg width="24" height="24" viewBox="0 0 24 24" fill="none" xmlns="http://www.w3.org/2000/svg">
<path d="M13.4089 2.51301C12.5053 2.14671 11.4947 2.14671 10.5911 2.51301L8.40058 3.40106L17.9928 7.13136L21.3671 5.82763C21.2312 5.7149 21.0769 5.62165 20.9075 5.55298L13.4089 2.51301ZM22 7.19118L12.7498 10.7651V17.6062L18.3927 11.9633C19.3679 10.9881 20.8037 10.7541 22 11.2613V7.19118ZM11.2498 10.7651V20.6623L11.0632 21.4085C11.0444 21.4839 11.0298 21.559 11.0194 21.6335C10.8746 21.5943 10.7315 21.5462 10.5911 21.4892L3.09252 18.4493C2.43211 18.1815 2 17.5401 2 16.8275V7.19134L11.2498 10.7651ZM2.63273 5.82774L11.9998 9.44684L15.9168 7.93346L6.37434 4.22251L3.09252 5.55298C2.92308 5.62167 2.76867 5.71496 2.63273 5.82774ZM19.0999 12.6704L13.1974 18.5729C12.8533 18.917 12.6092 19.3482 12.4911 19.8203L12.0334 21.651C11.8344 22.4472 12.5556 23.1683 13.3517 22.9693L15.1824 22.5116C15.6545 22.3936 16.0857 22.1494 16.4299 21.8053L22.3323 15.9029C23.2249 15.0103 23.2249 13.5631 22.3323 12.6704C21.4397 11.7778 19.9925 11.7778 19.0999 12.6704Z" fill="#212121"/>
</svg>

<svg xmlns="http://www.w3.org/2000/svg" width="24" height="24"><path d="M13.409 2.513a3.75 3.75 0 0 0-2.818 0l-2.19.888 9.592 3.73 3.374-1.303a1.747 1.747 0 0 0-.46-.275l-7.498-3.04ZM22 7.191l-9.25 3.574v6.841l5.643-5.643A3.287 3.287 0 0 1 22 11.261v-4.07Zm-10.75 3.574v9.897l-.187.747a2.17 2.17 0 0 0-.044.225 3.73 3.73 0 0 1-.428-.145l-7.498-3.04A1.75 1.75 0 0 1 2 16.827V7.192l9.25 3.574ZM2.633 5.828 12 9.447l3.917-1.514-9.543-3.71-3.281 1.33c-.17.069-.324.162-.46.275ZM19.1 12.67l-5.903 5.903a2.686 2.686 0 0 0-.706 1.247l-.458 1.831a1.087 1.087 0 0 0 1.319 1.318l1.83-.457a2.686 2.686 0 0 0 1.248-.707l5.902-5.902A2.286 2.286 0 0 0 19.1 12.67Z"/></svg>
